packages/match-icons/product/svg/interconnect.svg

<svg fill="none" height="32" viewBox="0 0 32 32" width="32" xmlns="http://www.w3.org/2000/svg" xmlns:xlink="http://www.w3.org/1999/xlink"><clipPath id="a"><path d="m0 0h32v32h-32z"/></clipPath><g clip-path="url(#a)" fill="#394762"><path d="m16 19c1.6569 0 3-1.3431 3-3s-1.3431-3-3-3-3 1.3431-3 3 1.3431 3 3 3z"/><path d="m21.66 21.66c.9294-.9304 1.6151-2.0757 1.9964-3.3344.3813-1.2586.4464-2.5919.1895-3.8817-.2568-1.2899-.8277-2.4965-1.6621-3.513-.8344-1.01663-1.9065-1.81183-3.1215-2.31526-1.215-.50342-2.5353-.69955-3.8442-.57101-1.3088.12853-2.5658.57777-3.6597 1.30794-1.0938.73013-1.99076 1.71873-2.61144 2.87823-.62067 1.1595-.94593 2.4541-.94696 3.7692 0 .2652-.10536.5196-.29289.7071-.18754.1876-.44189.2929-.70711.2929s-.51957-.1053-.70711-.2929c-.18753-.1875-.29289-.4419-.29289-.7071-.00049-2.3135.80124-4.5557 2.26859-6.34445 1.46735-1.78872 3.50951-3.01332 5.77861-3.46512 2.269-.45181 4.6245-.10287 6.6651.98736 2.0406 1.09022 3.64 2.85431 4.5258 4.99161s1.003 4.5156.3318 6.7297c-.6712 2.214-2.0894 4.1269-4.0128 5.4126-1.9235 1.2856-4.2332 1.8646-6.5357 1.6382s-4.4552-1.2442-6.0914-2.8799c-.16383-.1913-.24943-.4373-.23971-.689s.11405-.4904.29215-.6685c.17809-.1781.41683-.2825.66851-.2922.25167-.0097.49775.0759.68905.2397.743.7438 1.6253 1.3339 2.5965 1.7365s2.0122.6098 3.0635.6098 2.0923-.2072 3.0635-.6098 1.8535-.9927 2.5965-1.7365zm9.34-6.66c-.2652 0-.5196.1054-.7071.2929-.1875.1876-.2929.4419-.2929.7071.0002 2.7691-.8208 5.4761-2.3591 7.7785-1.5383 2.3025-3.7249 4.0971-6.2832 5.1568s-5.3734 1.337-8.0892.7967c-2.7159-.5403-5.21056-1.8738-7.1685-3.832-2.62564-2.6256-4.10071-6.1867-4.10071-9.9 0-3.7132 1.47507-7.27433 4.10071-9.89997s6.1868-4.10071 9.9-4.10071 7.2744 1.47507 9.9 4.10071c.1913.16383.4374.24943.6891.23971.2516-.00972.4904-.11405.6685-.29215.1781-.17809.2824-.41683.2921-.66851.0097-.25167-.0759-.49775-.2397-.68905-3.0003-2.99831-7.0684-4.68258371-11.31-4.68258371s-8.30972 1.68427371-11.31 4.68258371c-2.99831 3.00028-4.68258423 7.06837-4.68258423 11.30997 0 4.2417 1.68427423 8.3098 4.68258423 11.31 3.00028 2.9983 7.0684 4.6826 11.31 4.6826s8.3097-1.6843 11.31-4.6826c1.4922-1.4803 2.6753-3.2425 3.4804-5.1841.8052-1.9417 1.2163-4.0239 1.2096-6.1259 0-.2652-.1054-.5195-.2929-.7071-.1875-.1875-.4419-.2929-.7071-.2929z"/></g></svg>

<svg width="32" height="32" viewBox="0 0 32 32" fill="none" xmlns="http://www.w3.org/2000/svg">
<g clip-path="url(#clip0)">
<path d="M16 19C17.6569 19 19 17.6569 19 16C19 14.3431 17.6569 13 16 13C14.3431 13 13 14.3431 13 16C13 17.6569 14.3431 19 16 19Z" fill="#394762"/>
<path d="M21.66 21.66C22.5894 20.7296 23.2751 19.5843 23.6564 18.3256C24.0377 17.067 24.1028 15.7337 23.8459 14.4439C23.5891 13.154 23.0182 11.9474 22.1838 10.9309C21.3494 9.91427 20.2773 9.11907 19.0623 8.61564C17.8473 8.11222 16.527 7.91609 15.2181 8.04463C13.9093 8.17316 12.6523 8.6224 11.5584 9.35257C10.4646 10.0827 9.56764 11.0713 8.94696 12.2308C8.32629 13.3903 8.00103 14.6849 8 16C8 16.2652 7.89464 16.5196 7.70711 16.7071C7.51957 16.8947 7.26522 17 7 17C6.73478 17 6.48043 16.8947 6.29289 16.7071C6.10536 16.5196 6 16.2652 6 16C5.99951 13.6865 6.80124 11.4443 8.26859 9.65555C9.73594 7.86683 11.7781 6.64223 14.0472 6.19043C16.3162 5.73862 18.6717 6.08756 20.7123 7.17779C22.7529 8.26801 24.3523 10.0321 25.2381 12.1694C26.1239 14.3067 26.2411 16.685 25.5699 18.8991C24.8987 21.1131 23.4805 23.026 21.5571 24.3117C19.6336 25.5973 17.3239 26.1763 15.0214 25.9499C12.7189 25.7235 10.5662 24.7057 8.93 23.07C8.76617 22.8787 8.68057 22.6327 8.69029 22.381C8.70001 22.1293 8.80434 21.8906 8.98244 21.7125C9.16053 21.5344 9.39927 21.43 9.65095 21.4203C9.90262 21.4106 10.1487 21.4962 10.34 21.66C11.083 22.4038 11.9653 22.9939 12.9365 23.3965C13.9077 23.7991 14.9487 24.0063 16 24.0063C17.0513 24.0063 18.0923 23.7991 19.0635 23.3965C20.0347 22.9939 20.917 22.4038 21.66 21.66V21.66ZM31 15C30.7348 15 30.4804 15.1054 30.2929 15.2929C30.1054 15.4805 30 15.7348 30 16C30.0002 18.7691 29.1792 21.4761 27.6409 23.7785C26.1026 26.081 23.916 27.8756 21.3577 28.9353C18.7994 29.995 15.9843 30.2723 13.2685 29.732C10.5526 29.1917 8.05794 27.8582 6.1 25.9C3.47436 23.2744 1.99929 19.7133 1.99929 16C1.99929 12.2868 3.47436 8.72567 6.1 6.10003C8.72564 3.47439 12.2868 1.99932 16 1.99932C19.7132 1.99932 23.2744 3.47439 25.9 6.10003C26.0913 6.26386 26.3374 6.34946 26.5891 6.33974C26.8407 6.33002 27.0795 6.22569 27.2576 6.04759C27.4357 5.8695 27.54 5.63076 27.5497 5.37908C27.5594 5.12741 27.4738 4.88133 27.31 4.69003C24.3097 1.69172 20.2416 0.00744629 16 0.00744629C11.7584 0.00744629 7.69028 1.69172 4.69 4.69003C1.69169 7.69031 0.00741577 11.7584 0.00741577 16C0.00741577 20.2417 1.69169 24.3098 4.69 27.31C7.69028 30.3083 11.7584 31.9926 16 31.9926C20.2416 31.9926 24.3097 30.3083 27.31 27.31C28.8022 25.8297 29.9853 24.0675 30.7904 22.1259C31.5956 20.1842 32.0067 18.102 32 16C32 15.7348 31.8946 15.4805 31.7071 15.2929C31.5196 15.1054 31.2652 15 31 15Z" fill="#394762"/>
</g>
<defs>
<clipPath id="clip0">
<rect width="32" height="32" fill="white"/>
</clipPath>
</defs>
</svg>
